src/img/icons/zero custo_branco.svg

<svg width="54" height="54" viewBox="0 0 54 54" fill="none" xmlns="http://www.w3.org/2000/svg">
<path d="M22.912 47.4798C20.768 47.4798 18.896 47.0798 17.296 46.2798C15.696 45.4478 14.352 44.2798 13.264 42.7758C12.176 41.2398 11.36 39.3838 10.816 37.2078C10.272 34.9998 10 32.5198 10 29.7678C10 25.7358 10.528 22.4078 11.584 19.7838C12.672 17.1598 14.192 15.2078 16.144 13.9278C18.096 12.6478 20.352 12.0078 22.912 12.0078C25.024 12.0078 26.88 12.4238 28.48 13.2558C30.112 14.0558 31.472 15.2238 32.56 16.7598C33.648 18.2958 34.464 20.1678 35.008 22.3758C35.552 24.5518 35.824 27.0158 35.824 29.7678C35.824 33.7998 35.28 37.1278 34.192 39.7518C33.104 42.3438 31.6 44.2798 29.68 45.5598C27.76 46.8398 25.504 47.4798 22.912 47.4798ZM22.912 41.5278C23.808 41.5278 24.608 41.3358 25.312 40.9518C26.016 40.5678 26.624 39.9278 27.136 39.0318C27.648 38.1358 28.032 36.9358 28.288 35.4318C28.544 33.8958 28.672 32.0078 28.672 29.7678C28.672 27.4958 28.544 25.6078 28.288 24.1038C28.032 22.5678 27.648 21.3518 27.136 20.4558C26.624 19.5598 26.016 18.9198 25.312 18.5358C24.608 18.1198 23.808 17.9118 22.912 17.9118C22.016 17.9118 21.216 18.1198 20.512 18.5358C19.808 18.9198 19.2 19.5598 18.688 20.4558C18.176 21.3518 17.776 22.5678 17.488 24.1038C17.232 25.6078 17.104 27.4958 17.104 29.7678C17.104 32.0078 17.232 33.8958 17.488 35.4318C17.776 36.9358 18.176 38.1358 18.688 39.0318C19.2 39.9278 19.808 40.5678 20.512 40.9518C21.216 41.3358 22.016 41.5278 22.912 41.5278Z" fill="#FEFEFF"/>
<path d="M43.6875 18C42.8333 18 42.0521 17.8715 41.3438 17.6145C40.6458 17.3467 40.0417 16.9558 39.5312 16.4418C39.0312 15.917 38.6458 15.2851 38.375 14.5462C38.1042 13.7965 37.9687 12.9451 37.9687 11.992C37.9687 11.0495 38.1042 10.2035 38.375 9.45382C38.6458 8.70415 39.0312 8.07229 39.5312 7.55823C40.0417 7.04418 40.6458 6.65863 41.3438 6.40161C42.0521 6.13387 42.8333 6 43.6875 6C44.6667 6 45.5365 6.17671 46.2969 6.53012C47.0573 6.87282 47.6719 7.36011 48.1406 7.99197C48.6198 8.61312 48.9062 9.34137 49 10.1767H46.4844C46.3906 9.79117 46.2188 9.44846 45.9688 9.14859C45.7188 8.83802 45.401 8.60241 45.0156 8.44177C44.6302 8.27041 44.1875 8.18474 43.6875 8.18474C43.0417 8.18474 42.4792 8.32396 42 8.60241C41.5312 8.88086 41.1667 9.30388 40.9062 9.87149C40.6458 10.4391 40.5156 11.1459 40.5156 11.992C40.5156 12.6452 40.5885 13.2075 40.7344 13.6787C40.8906 14.1499 41.1042 14.5462 41.375 14.8675C41.6563 15.1888 41.9896 15.4297 42.375 15.5904C42.7604 15.7403 43.1979 15.8153 43.6875 15.8153C44.1667 15.8153 44.599 15.7349 44.9844 15.5743C45.3802 15.4029 45.7083 15.1673 45.9688 14.8675C46.2292 14.5569 46.401 14.1981 46.4844 13.7912H49C48.9167 14.6372 48.6302 15.3762 48.1406 16.008C47.6615 16.6399 47.0365 17.1325 46.2656 17.4859C45.5052 17.8286 44.6458 18 43.6875 18ZM37 13.8554V12.5863H44.2656L44.0937 13.8554H37ZM37 11.4137V10.1767H44.625L44.4531 11.4137H37Z" fill="#FEFEFF"/>
</svg>

<svg xmlns="http://www.w3.org/2000/svg" width="54" height="54" fill="none" viewBox="0 0 54 54"><path fill="#fefeff" d="M22.912 47.48q-3.216 0-5.616-1.2-2.4-1.248-4.032-3.504-1.632-2.304-2.448-5.568Q10 33.896 10 29.768q0-6.048 1.584-9.984 1.632-3.936 4.56-5.856t6.768-1.92q3.168 0 5.568 1.248 2.448 1.2 4.08 3.504t2.448 5.616q.816 3.264.816 7.392 0 6.048-1.632 9.984-1.632 3.888-4.512 5.808t-6.768 1.92m0-5.952q1.344 0 2.4-.576t1.824-1.92 1.152-3.6q.384-2.304.384-5.664 0-3.408-.384-5.664-.384-2.304-1.152-3.648t-1.824-1.92q-1.056-.624-2.4-.624t-2.4.624q-1.056.576-1.824 1.92t-1.2 3.648q-.384 2.256-.384 5.664 0 3.36.384 5.664.432 2.256 1.2 3.6t1.824 1.92 2.4.576"/><path fill="#fefeff" d="M43.688 18q-1.282 0-2.344-.386a5.1 5.1 0 0 1-1.813-1.172 5.4 5.4 0 0 1-1.156-1.896q-.405-1.124-.406-2.554 0-1.415.406-2.538.405-1.125 1.156-1.896.766-.771 1.813-1.156Q42.407 6 43.687 6q1.47 0 2.61.53a4.6 4.6 0 0 1 1.844 1.462q.718.932.859 2.185h-2.516a2.5 2.5 0 0 0-.515-1.028 2.4 2.4 0 0 0-.953-.707q-.579-.258-1.328-.257-.97 0-1.688.417-.703.418-1.094 1.27-.39.85-.39 2.12 0 .98.218 1.687.235.706.641 1.188.422.483 1 .723a3.6 3.6 0 0 0 1.313.225q.719 0 1.296-.24.594-.258.985-.707.39-.466.515-1.077H49q-.125 1.269-.86 2.217a4.8 4.8 0 0 1-1.874 1.478q-1.14.514-2.578.514M37 13.855v-1.269h7.266l-.172 1.27zm0-2.441v-1.237h7.625l-.172 1.237z"/></svg>
